client/src/assets/homepage/helpus-icon-3.svg

<svg fill="none" height="56" viewBox="0 0 56 56" width="56" xmlns="http://www.w3.org/2000/svg"><path d="m28-.00097656c-15.4633 0-28 10.82557656-28 24.18127656.0649443 3.3252.842356 6.5928 2.27501 9.5623 1.43265 2.9695 3.48407 5.5653 6.00325 7.5963l-5.84348 14.659 15.51442-9.2678c3.25 1.0814 6.6402 1.6318 10.0508 1.6316 15.4633 0 28-10.8256 28-24.1814 0-13.3557-12.5367-24.18127656-28-24.18127656z" fill="#fa873a"/><path d="m12.4159 25.1263c0 2 1.64 3.64 3.64 3.64 2.04 0 3.68-1.64 3.68-3.64s-1.64-3.64-3.68-3.64c-2 0-3.64 1.64-3.64 3.64zm12.4219 0c0 2 1.64 3.64 3.64 3.64 2.04 0 3.68-1.64 3.68-3.64s-1.64-3.64-3.68-3.64c-2 0-3.64 1.64-3.64 3.64zm12.4219 0c0 2 1.64 3.64 3.64 3.64 2.04 0 3.68-1.64 3.68-3.64s-1.64-3.64-3.68-3.64c-2 0-3.64 1.64-3.64 3.64z" fill="#fff"/></svg>

<svg width="56" height="56" viewBox="0 0 56 56" fill="none" xmlns="http://www.w3.org/2000/svg">
<path d="M28 -0.000976562C12.5367 -0.000976562 0 10.8246 0 24.1803C0.0649443 27.5055 0.842356 30.7731 2.27501 33.7426C3.70766 36.7121 5.75908 39.3079 8.27826 41.3389L2.43478 55.9979L17.9492 46.7301C21.1992 47.8115 24.5894 48.3619 28 48.3617C43.4633 48.3617 56 37.5361 56 24.1803C56 10.8246 43.4633 -0.000976562 28 -0.000976562Z" fill="#FA873A"/>
<path d="M12.4159 25.1263C12.4159 27.1263 14.0559 28.7663 16.0559 28.7663C18.0959 28.7663 19.7359 27.1263 19.7359 25.1263C19.7359 23.1263 18.0959 21.4863 16.0559 21.4863C14.0559 21.4863 12.4159 23.1263 12.4159 25.1263ZM24.8378 25.1263C24.8378 27.1263 26.4778 28.7663 28.4778 28.7663C30.5178 28.7663 32.1578 27.1263 32.1578 25.1263C32.1578 23.1263 30.5178 21.4863 28.4778 21.4863C26.4778 21.4863 24.8378 23.1263 24.8378 25.1263ZM37.2597 25.1263C37.2597 27.1263 38.8997 28.7663 40.8997 28.7663C42.9397 28.7663 44.5797 27.1263 44.5797 25.1263C44.5797 23.1263 42.9397 21.4863 40.8997 21.4863C38.8997 21.4863 37.2597 23.1263 37.2597 25.1263Z" fill="white"/>
</svg>
